img/theatre.svg

<svg width="52" height="52" viewBox="0 0 52 52" fill="none" xmlns="http://www.w3.org/2000/svg">
<circle cx="26" cy="26" r="25" fill="white" stroke="#172343" stroke-width="2"/>
<path d="M24.869 29.6489C24.844 29.6507 22.3432 29.8254 21.0338 29.8254C20.8492 29.8254 20.6995 29.9751 20.6995 30.1597C20.6995 30.3442 20.8492 30.4939 21.0338 30.4939C21.0913 30.4939 21.1537 30.493 21.2147 30.4926V32.4786C21.2147 32.6631 21.3645 32.8129 21.549 32.8129C21.7335 32.8129 21.8833 32.6631 21.8833 32.4786V30.4779C22.1262 30.4699 22.3798 30.4596 22.632 30.4485V32.4791C22.632 32.6636 22.7818 32.8133 22.9663 32.8133C23.1508 32.8133 23.3006 32.6636 23.3006 32.4791V30.4146C23.5702 30.4003 23.8247 30.3856 24.0493 30.3718V32.4786C24.0493 32.6631 24.1991 32.8129 24.3836 32.8129C24.5681 32.8129 24.7179 32.6631 24.7179 32.4786V30.3295C24.8275 30.3219 24.9006 30.3174 24.9162 30.3161C25.1003 30.3032 25.2393 30.1432 25.226 29.9591C25.213 29.7741 25.0517 29.6364 24.869 29.6489Z" fill="black"/>
<path d="M19.6592 34.2057H17.889L19.0117 32.0307C19.0963 31.8667 19.0317 31.6652 18.8677 31.5805C18.7041 31.495 18.5027 31.5605 18.4175 31.724L17.0435 34.3866C16.99 34.49 16.9944 34.6144 17.0551 34.7138C17.1157 34.8131 17.224 34.8738 17.3408 34.8738H19.6597C19.8442 34.8738 19.994 34.724 19.994 34.5395C19.994 34.355 19.8438 34.2057 19.6592 34.2057Z" fill="black"/>
<path d="M32.4245 27.9263C30.6141 27.9263 29.2173 25.848 29.1589 25.7598C29.0569 25.606 29.0988 25.3988 29.253 25.2967C29.4058 25.1947 29.614 25.237 29.716 25.3903C29.7281 25.409 30.9747 27.2578 32.4245 27.2578C33.9782 27.2578 35.531 25.0596 35.7619 24.72C36.1327 22.7585 36.4046 20.1601 36.5975 17.7413C35.9936 18.2472 34.8549 18.8498 32.8537 18.8498C32.6692 18.8498 32.5194 18.7 32.5194 18.5155C32.5194 18.331 32.6692 18.1812 32.8537 18.1812C35.342 18.1812 36.4259 17.0064 36.6782 16.6788C36.8993 13.6236 36.992 11.0818 37 10.8665C37 10.8643 36.9991 10.8621 36.9991 10.8598C36.9991 10.858 37 10.8567 37 10.8549C37 8.8346 32.2003 8.50523 31.2381 8.45977C31.1449 8.45576 31.0576 8.48874 30.9916 8.55203C30.9256 8.61532 30.8882 8.70267 30.8882 8.79404V12.5811C28.2831 12.5615 23.8467 12.3279 23.7999 12.3253C23.7081 12.3217 23.6185 12.3533 23.5521 12.4166C23.4857 12.4799 23.4478 12.5673 23.4478 12.6591V20.9044C23.4478 22.2598 23.6912 23.4738 24.0865 24.5582C22.7597 24.6117 21.2586 24.6616 20.1118 24.6705V20.8835C20.1118 20.7921 20.0744 20.7047 20.0084 20.6419C19.9424 20.5786 19.8577 20.5474 19.7619 20.5496C18.7997 20.5951 14 20.9245 14 22.9448C14 22.9466 14.0009 22.9484 14.0009 22.9506C14.0009 22.9528 14 22.9546 14 22.9568C14.016 23.4056 14.4011 33.9953 15.5577 38.2352C16.4094 41.3582 18.7208 43.8924 19.7775 43.8924C19.8216 43.8924 19.8653 43.8835 19.9059 43.8665C19.9825 43.8349 27.5522 40.6009 27.5522 32.9934V29.4586C29.3466 31.0292 31.058 31.7615 31.0941 31.7767C31.1351 31.7936 31.1784 31.8025 31.2225 31.8025C32.2663 31.8025 34.5304 29.3294 35.4071 26.2599C34.6855 27.0483 33.6145 27.9263 32.4245 27.9263ZM31.5567 9.14837C33.5994 9.29188 36.2067 9.85969 36.327 10.7881C36.3248 10.7921 36.323 10.7952 36.3203 10.7997C36.3145 10.8104 36.3069 10.8233 36.2989 10.8367C36.2905 10.85 36.2807 10.8656 36.2704 10.8817C36.261 10.8964 36.2503 10.912 36.2388 10.9285C36.2254 10.9476 36.2089 10.969 36.1924 10.9904C36.179 11.0078 36.1657 11.0247 36.1505 11.0435C36.1291 11.0697 36.1033 11.0987 36.077 11.1268C36.0618 11.1437 36.0489 11.1598 36.0315 11.1772C35.9869 11.2235 35.9375 11.2721 35.8809 11.3225C35.8675 11.3345 35.8501 11.3479 35.835 11.3603C35.7895 11.3991 35.7427 11.4383 35.6897 11.4784C35.6638 11.4976 35.6348 11.5177 35.6072 11.5373C35.5595 11.5716 35.51 11.6055 35.4566 11.6398C35.4227 11.6616 35.3853 11.6835 35.3492 11.7049C35.2943 11.7374 35.2377 11.7699 35.1776 11.802C35.1361 11.8243 35.0929 11.8461 35.0483 11.868C34.9841 11.8996 34.9164 11.9308 34.8469 11.9611C34.7987 11.9821 34.7501 12.0035 34.6993 12.024C34.6227 12.0552 34.5402 12.0846 34.456 12.1145C34.4038 12.1332 34.3535 12.1519 34.2982 12.1697C34.197 12.2023 34.0878 12.2326 33.9773 12.2624C33.931 12.2749 33.8886 12.2883 33.8405 12.3003C33.6787 12.3404 33.5071 12.3774 33.3248 12.4108C33.2883 12.4175 33.2473 12.422 33.2098 12.4282C33.0605 12.4536 32.9063 12.4768 32.7432 12.4964C32.6714 12.5049 32.5934 12.5107 32.519 12.5183C32.3808 12.5321 32.2404 12.5445 32.0925 12.5539C32.0038 12.5593 31.9097 12.5628 31.8166 12.5668C31.7324 12.5704 31.6432 12.5717 31.5554 12.5735V9.14837H31.5567ZM31.3406 22.5619H33.1109L31.9886 20.387C31.9039 20.223 31.9681 20.0215 32.1321 19.9368C32.2962 19.8517 32.4981 19.9172 32.5823 20.0808L33.9564 22.7433C34.0098 22.8467 34.0054 22.9711 33.9452 23.0705C33.8842 23.1703 33.7763 23.2309 33.6595 23.2309H31.3406C31.1561 23.2309 31.0063 23.0812 31.0063 22.8967C31.0063 22.7121 31.1561 22.5619 31.3406 22.5619ZM26.8837 32.9938C26.8837 39.7613 20.4777 42.8744 19.7214 43.2176C19.1531 43.1013 17.3641 41.3738 16.4402 38.799C16.7936 38.3341 17.8396 37.1071 19.0212 37.1071C20.4715 37.1071 21.7172 38.9559 21.7297 38.9746C21.8317 39.1279 22.039 39.1694 22.1932 39.0682C22.3469 38.9661 22.3888 38.7589 22.2872 38.6051C22.2288 38.5169 20.832 36.4386 19.0212 36.4386C17.7612 36.4386 16.7294 37.4156 16.1982 38.04C15.6638 36.0669 15.2938 32.6137 15.0518 29.5059C15.5831 29.9622 16.6216 30.494 18.592 30.494C18.7765 30.494 18.9262 30.3442 18.9262 30.1597C18.9262 29.9752 18.7765 29.8303 18.592 29.8254C15.4953 29.7416 15.0398 28.4148 15.0367 28.4086C15.0193 28.364 14.9935 28.3261 14.9623 28.2949C14.8361 26.4934 14.755 24.9059 14.7109 23.9347C14.7381 23.9583 14.7684 23.9819 14.7973 24.006C14.8116 24.0176 14.8245 24.0287 14.8392 24.0403C14.9137 24.0991 14.9948 24.1584 15.0817 24.2177C15.1013 24.2311 15.1209 24.244 15.141 24.2569C15.2328 24.3175 15.3304 24.3777 15.4369 24.437C15.4521 24.4454 15.4686 24.4535 15.4837 24.4619C15.5876 24.5181 15.6985 24.5734 15.8171 24.6277C15.834 24.6358 15.8496 24.6433 15.867 24.6514C15.9931 24.7075 16.1291 24.7614 16.2721 24.8131C16.3016 24.8238 16.331 24.8345 16.3613 24.8452C16.5079 24.896 16.6617 24.9446 16.8261 24.9896C16.8529 24.9968 16.8814 25.0035 16.9086 25.0106C17.0744 25.0543 17.2478 25.0948 17.4323 25.1314C17.4465 25.134 17.4595 25.1376 17.4737 25.1403C17.6649 25.1773 17.8695 25.208 18.0817 25.2357C18.1227 25.241 18.1628 25.2464 18.2047 25.2517C18.4168 25.2767 18.6388 25.2972 18.8719 25.3119C18.9142 25.3146 18.9579 25.3163 19.0011 25.3186C19.2494 25.3319 19.5056 25.3408 19.7784 25.3408C21.0304 25.3408 22.8314 25.2793 24.3508 25.2169C24.9993 26.6815 25.9245 27.8826 26.8841 28.8373L26.8837 32.9938ZM26.5298 18.6719C26.3457 18.659 26.2066 18.4995 26.22 18.3149C26.2325 18.1309 26.3845 17.9878 26.577 18.0052C26.5806 18.0052 26.6372 18.0092 26.7286 18.0154V16.1408C26.7286 15.9563 26.8783 15.8066 27.0628 15.8066C27.2473 15.8066 27.3971 15.9563 27.3971 16.1408V18.0578C27.6204 18.0711 27.8749 18.0859 28.1459 18.101V16.1408C28.1459 15.9563 28.2956 15.8066 28.4801 15.8066C28.6646 15.8066 28.8144 15.9563 28.8144 16.1408V18.1344C29.0667 18.146 29.3203 18.1567 29.5632 18.1647V16.1408C29.5632 15.9563 29.7129 15.8066 29.8974 15.8066C30.0819 15.8066 30.2317 15.9563 30.2317 16.1408V18.1799C30.2932 18.1803 30.3552 18.1812 30.4127 18.1812C30.5972 18.1812 30.7469 18.331 30.7469 18.5155C30.7469 18.7 30.5972 18.8498 30.4127 18.8498C29.0791 18.8498 26.6332 18.6795 26.5298 18.6719Z" fill="black"/>
</svg>

<svg xmlns="http://www.w3.org/2000/svg" width="52" height="52" fill="none"><circle cx="26" cy="26" r="25" fill="#fff" stroke="#172343" stroke-width="2"/><path fill="#000" d="M24.869 29.649c-.025.002-2.526.176-3.835.176a.334.334 0 0 0 0 .669l.18-.001v1.986a.334.334 0 0 0 .67 0v-2.001c.242-.008.496-.018.748-.03v2.031a.334.334 0 0 0 .669 0v-2.064l.748-.043v2.107a.334.334 0 0 0 .669 0v-2.15l.198-.013a.334.334 0 1 0-.047-.667ZM19.66 34.206h-1.771l1.123-2.175a.334.334 0 0 0-.595-.307l-1.373 2.663a.334.334 0 0 0 .297.487h2.319a.334.334 0 1 0 0-.668Z"/><path fill="#000" d="M32.425 27.926c-1.81 0-3.208-2.078-3.266-2.166a.334.334 0 1 1 .557-.37c.012.019 1.259 1.868 2.709 1.868 1.553 0 3.106-2.198 3.337-2.538.37-1.961.643-4.56.835-6.979-.603.506-1.742 1.109-3.743 1.109a.334.334 0 0 1 0-.669c2.488 0 3.572-1.175 3.824-1.502.221-3.055.314-5.597.322-5.812v-.012c0-2.02-4.8-2.35-5.762-2.395a.332.332 0 0 0-.35.334v3.787c-2.605-.02-7.041-.253-7.088-.256a.335.335 0 0 0-.352.334v8.245c0 1.356.243 2.57.639 3.654-1.327.054-2.828.104-3.975.113v-3.787a.334.334 0 0 0-.35-.334c-.962.045-5.762.374-5.762 2.395v.012c.016.449.401 11.038 1.558 15.278.851 3.123 3.163 5.657 4.22 5.657a.333.333 0 0 0 .128-.026c.077-.031 7.646-3.265 7.646-10.873V29.46c1.795 1.57 3.506 2.303 3.542 2.318a.336.336 0 0 0 .128.025c1.044 0 3.308-2.473 4.185-5.542-.721.788-1.792 1.666-2.982 1.666Zm-.868-18.778c2.042.144 4.65.712 4.77 1.64a1.098 1.098 0 0 1-.028.049l-.029.045a1.448 1.448 0 0 1-.12.162 1.7 1.7 0 0 1-.073.083c-.015.017-.028.033-.045.05a2.709 2.709 0 0 1-.151.146l-.046.037a3.139 3.139 0 0 1-.145.118l-.083.06a3.449 3.449 0 0 1-.15.102c-.034.022-.072.043-.108.065a4.454 4.454 0 0 1-.502.256c-.048.021-.097.043-.148.063-.076.031-.159.06-.243.09-.052.02-.103.038-.158.056-.101.032-.21.063-.32.092-.047.013-.09.026-.138.038-.161.04-.333.077-.515.11-.037.008-.078.012-.115.018a9.58 9.58 0 0 1-.467.068c-.072.009-.15.015-.224.022-.138.014-.279.026-.426.036l-.276.013c-.085.003-.174.005-.262.006V9.148h.002Zm-.216 13.414h1.77l-1.122-2.175a.334.334 0 1 1 .593-.306l1.374 2.662a.336.336 0 0 1-.297.488h-2.318a.334.334 0 0 1 0-.67Zm-4.457 10.432c0 6.767-6.406 9.88-7.163 10.224-.568-.117-2.357-1.844-3.28-4.419.353-.465 1.399-1.692 2.58-1.692 1.45 0 2.696 1.849 2.709 1.868a.335.335 0 0 0 .557-.37c-.058-.088-1.455-2.166-3.266-2.166-1.26 0-2.292.977-2.823 1.601-.534-1.973-.904-5.426-1.146-8.534.531.456 1.57.988 3.54.988.184 0 .334-.15.334-.334 0-.185-.15-.33-.334-.335-3.097-.083-3.552-1.41-3.555-1.416a.33.33 0 0 0-.075-.114 182.269 182.269 0 0 1-.251-4.36l.086.071.042.034a4.348 4.348 0 0 0 .598.397l.047.025c.104.056.214.111.333.166l.05.023c.126.056.262.11.405.162l.09.032c.146.051.3.1.464.145l.083.02c.165.044.339.085.523.121l.042.01c.19.036.395.067.608.095l.123.016c.212.025.434.045.667.06l.13.007c.247.013.504.022.776.022 1.252 0 3.053-.062 4.573-.124.648 1.465 1.573 2.666 2.533 3.62v4.157Zm-.354-14.322a.334.334 0 0 1-.31-.357.326.326 0 0 1 .357-.31l.152.01v-1.874a.334.334 0 0 1 .668 0v1.917l.749.043v-1.96a.334.334 0 0 1 .668 0v1.993c.253.012.506.023.75.03v-2.023a.334.334 0 0 1 .668 0v2.039l.18.001a.334.334 0 0 1 0 .669c-1.333 0-3.779-.17-3.882-.178Z"/></svg>
